svg_80x80/electron.svg

<svg viewBox="0 0 80 80" xmlns="http://www.w3.org/2000/svg">
<rect width="100%" height="100%" fill="white"/>
<path d="M40 73C58.2254 73 73 58.2254 73 40C73 21.7746 58.2254 7 40 7C21.7746 7 7 21.7746 7 40C7 58.2254 21.7746 73 40 73Z" fill="#2F3242"/>
<path fill-rule="evenodd" clip-rule="evenodd" d="M40.0202 16C38.258 16 36.8319 17.4447 36.8319 19.2238C36.8319 21.0029 38.258 22.4476 40.0202 22.4476C41.1355 22.4476 42.1162 21.869 42.6859 20.9931C44.3933 22.1 45.9871 24.2706 47.2088 27.3148C48.6026 30.7875 49.4517 35.2549 49.4517 40.151C49.4517 44.1385 48.8884 47.8454 47.924 50.963C47.7737 51.4489 48.0419 51.9659 48.523 52.1178C49.0041 52.2696 49.516 51.9987 49.6663 51.5128C50.6908 48.2011 51.2771 44.3072 51.2771 40.151C51.2771 35.0539 50.3952 30.3462 48.9005 26.6222C47.5267 23.1991 45.5815 20.481 43.208 19.1622C43.1755 17.4115 41.762 16 40.0202 16ZM38.6573 19.2238C38.6573 18.4602 39.2689 17.8436 40.0202 17.8436C40.7716 17.8436 41.3832 18.4602 41.3832 19.2238C41.3832 19.9874 40.7716 20.604 40.0202 20.604C39.2689 20.604 38.6573 19.9874 38.6573 19.2238Z" fill="#A2ECFB"/>
<path d="M31.2985 51.4552C31.7731 51.2838 32.2955 51.5334 32.4652 52.0128C33.375 54.5828 34.5551 56.6473 35.8779 58.0535C37.198 59.4568 38.6086 60.1564 40.0207 60.1564C42.0635 60.1564 44.1251 58.6733 45.8484 55.7736C46.1078 55.337 46.6685 55.1956 47.1006 55.4576C47.5329 55.7196 47.6729 56.2858 47.4135 56.7224C45.552 59.8547 43.0052 62 40.0207 62C37.9644 62 36.1057 60.9722 34.5546 59.3236C33.0063 57.6774 31.7132 55.3645 30.7464 52.6336C30.5767 52.1542 30.8239 51.6266 31.2985 51.4552Z" fill="#A2ECFB"/>
<path d="M34.6994 26.8295C34.6089 27.3303 34.1336 27.6623 33.6377 27.5709C30.9804 27.0814 28.6207 27.0819 26.7537 27.5373C24.8908 27.9917 23.5849 28.8779 22.8778 30.1169C21.8303 31.9523 22.1087 34.5844 23.8355 37.6313C24.086 38.0732 23.9344 38.6364 23.4969 38.8893C23.0594 39.1422 22.5018 38.9891 22.2514 38.5473C20.3949 35.2718 19.7687 31.8728 21.2964 29.1961C22.3248 27.3942 24.1353 26.2793 26.3253 25.7451C28.5112 25.212 31.1409 25.2368 33.9653 25.7572C34.4612 25.8486 34.7899 26.3287 34.6994 26.8295Z" fill="#A2ECFB"/>
<path fill-rule="evenodd" clip-rule="evenodd" d="M25.4009 41.4603C25.774 41.1179 26.3512 41.1459 26.6902 41.5226C28.8889 43.9669 31.8188 46.3576 35.2879 48.3838C39.425 50.8 43.6185 52.2829 47.2556 52.8162C50.4274 53.2813 53.068 53.0108 54.8933 52.1239C54.7197 51.7261 54.6234 51.2863 54.6234 50.8238C54.6234 49.0447 56.0495 47.6 57.8117 47.6C59.5737 47.6 61 49.0447 61 50.8238C61 52.6029 59.5737 54.0476 57.8117 54.0476C57.1903 54.0476 56.6108 53.868 56.1208 53.5575C53.7896 54.8672 50.5429 55.1612 46.9933 54.6407C43.0948 54.069 38.6822 52.4958 34.3742 49.9798C30.7579 47.8677 27.6764 45.3606 25.3391 42.7624C25.0002 42.3856 25.0278 41.8026 25.4009 41.4603ZM56.9593 51.9008C57.1929 52.0906 57.4894 52.204 57.8117 52.204C58.5631 52.204 59.1746 51.5874 59.1746 50.8238C59.1746 50.0602 58.5631 49.4436 57.8117 49.4436C57.0603 49.4436 56.4488 50.0602 56.4488 50.8238C56.4488 51.1431 56.5557 51.4366 56.735 51.6702C56.8204 51.7314 56.8967 51.8085 56.9593 51.9008Z" fill="#A2ECFB"/>
<path d="M53.9657 40.8242C53.6403 41.213 53.6887 41.7947 54.0737 42.1233C54.4586 42.4519 55.0345 42.4031 55.3599 42.0143C57.2091 39.8044 58.5381 37.5185 59.1704 35.3425C59.8037 33.1625 59.7525 31.0249 58.7263 29.227C57.2233 26.5933 54.0777 25.4365 50.4264 25.3885C49.9223 25.3818 49.5084 25.7891 49.5019 26.2982C49.4953 26.8072 49.8986 27.2253 50.4026 27.2319C53.786 27.2764 56.1151 28.3431 57.145 30.1477C57.8508 31.3843 57.9577 32.9682 57.4188 34.8234C56.8787 36.6824 55.7055 38.7452 53.9657 40.8242Z" fill="#A2ECFB"/>
<path fill-rule="evenodd" clip-rule="evenodd" d="M45.5758 27.7641C46.0686 27.6574 46.3824 27.1672 46.2767 26.6694C46.1709 26.1717 45.6856 25.8547 45.1928 25.9616C41.7706 26.7033 38.0446 28.1574 34.3912 30.2912C29.9565 32.8812 26.3211 36.0684 23.8783 39.2933C21.6403 42.248 20.3173 45.3535 20.4662 48.1102C19.5839 48.6839 19 49.6854 19 50.8238C19 52.6029 20.4261 54.0476 22.1883 54.0476C23.9505 54.0476 25.3766 52.6029 25.3766 50.8238C25.3766 49.0761 24.0003 47.6511 22.2813 47.6013C22.3098 45.5524 23.3337 43.0466 25.3281 40.4136C27.6035 37.4096 31.0453 34.375 35.3049 31.8872C38.8099 29.8401 42.3581 28.4615 45.5758 27.7641ZM22.1883 49.4436C21.4369 49.4436 20.8254 50.0602 20.8254 50.8238C20.8254 51.5874 21.4369 52.204 22.1883 52.204C22.9397 52.204 23.5512 51.5874 23.5512 50.8238C23.5512 50.0602 22.9397 49.4436 22.1883 49.4436Z" fill="#A2ECFB"/>
<path d="M37.9864 40.5955C38.2296 41.7321 39.3365 42.4545 40.4602 42.2089C41.5837 41.9628 42.2978 40.843 42.055 39.7064C41.8118 38.5698 40.7048 37.8475 39.5812 38.0931C38.4576 38.3391 37.744 39.4589 37.9864 40.5955Z" fill="#A2ECFB"/>
</svg>

<svg xmlns="http://www.w3.org/2000/svg" viewBox="0 0 80 80">
  <rect width="100%" height="100%" fill="#fff"/>
  <path fill="#2F3242" d="M40 73a33 33 0 1 0 0-66 33 33 0 0 0 0 66Z"/>
  <path fill="#A2ECFB" fill-rule="evenodd" d="M40 16a3.2 3.2 0 0 0-3.2 3.2c0 1.8 1.5 3.2 3.2 3.2 1.1 0 2.1-.5 2.7-1.4 1.7 1.1 3.3 3.3 4.5 6.3A37 37 0 0 1 48 51c-.1.5.1 1 .6 1.2.5.2 1-.1 1.2-.6a38.9 38.9 0 0 0-.8-24.9 14.5 14.5 0 0 0-5.7-7.4c0-1.8-1.4-3.2-3.2-3.2Zm-1.3 3.2c0-.7.6-1.4 1.3-1.4.8 0 1.4.7 1.4 1.4 0 .8-.6 1.4-1.4 1.4-.7 0-1.3-.6-1.3-1.4Z" clip-rule="evenodd"/>
  <path fill="#A2ECFB" d="M31.3 51.5c.5-.2 1 0 1.2.5.9 2.6 2 4.6 3.4 6 1.3 1.5 2.7 2.2 4.1 2.2 2 0 4.1-1.5 5.8-4.4a1 1 0 0 1 1.3-.3c.4.2.6.8.3 1.2C45.6 60 43 62 40 62c-2 0-3.9-1-5.4-2.7a19 19 0 0 1-3.9-6.7 1 1 0 0 1 .6-1.1ZM34.7 26.8c0 .5-.6.9-1 .8-2.7-.5-5-.5-7 0-1.8.4-3.1 1.3-3.8 2.5-1 1.9-.8 4.5 1 7.5.2.5 0 1-.4 1.3a1 1 0 0 1-1.2-.4c-2-3.2-2.5-6.6-1-9.3 1-1.8 2.8-3 5-3.5s4.8-.5 7.7 0c.5.1.8.6.7 1.1Z"/>
  <path fill="#A2ECFB" fill-rule="evenodd" d="M25.4 41.5a1 1 0 0 1 1.3 0 36.2 36.2 0 0 0 20.6 11.3c3.1.5 5.8.2 7.6-.7a3.2 3.2 0 0 1 3-4.5c1.7 0 3.1 1.4 3.1 3.2 0 1.8-1.4 3.2-3.2 3.2-.6 0-1.2-.1-1.7-.4a14.6 14.6 0 0 1-9.1 1 38 38 0 0 1-21.7-11.9 1 1 0 0 1 .1-1.2ZM57 51.9c.2.2.5.3.8.3.8 0 1.4-.6 1.4-1.4 0-.7-.6-1.4-1.4-1.4-.7 0-1.4.7-1.4 1.4l.3.9.3.2Z" clip-rule="evenodd"/>
  <path fill="#A2ECFB" d="M54 40.8a1 1 0 0 0 0 1.3c.5.4 1 .3 1.4 0a19 19 0 0 0 3.8-6.8c.6-2.1.6-4.3-.5-6-1.5-2.7-4.6-3.9-8.3-4a1 1 0 0 0-.9 1c0 .5.4 1 .9 1 3.4 0 5.7 1 6.7 2.8.8 1.3.9 2.9.3 4.7-.5 1.9-1.7 4-3.4 6Z"/>
  <path fill="#A2ECFB" fill-rule="evenodd" d="M45.6 27.8a1 1 0 0 0-.4-1.8c-3.4.7-7.2 2.2-10.8 4.3-4.4 2.6-8 5.8-10.5 9-2.3 3-3.6 6-3.4 8.8a3.2 3.2 0 0 0 1.7 6c1.8 0 3.2-1.5 3.2-3.3 0-1.7-1.4-3.1-3.1-3.2 0-2 1-4.6 3-7.2 2.3-3 5.7-6 10-8.5 3.5-2 7-3.4 10.3-4.1ZM22.2 49.4c-.8 0-1.4.7-1.4 1.4 0 .8.6 1.4 1.4 1.4.7 0 1.4-.6 1.4-1.4 0-.7-.7-1.4-1.4-1.4Z" clip-rule="evenodd"/>
  <path fill="#A2ECFB" d="M38 40.6a2 2 0 1 0 4-.9 2 2 0 1 0-4 .9Z"/>
</svg>
